packages/vapor/resources/icons/svg/status-limite_user.svg

<svg enable-background="new 0 0 528 528" height="528" viewBox="0 0 528 528" width="528" xmlns="http://www.w3.org/2000/svg"><path d="m263.999 0c-145.803 0-264 118.197-264 264s118.197 264 264 264 264-118.197 264-264-118.197-264-264-264zm.252 484c-121.642 0-220.252-98.609-220.252-220.252 0-121.642 98.61-220.251 220.252-220.251 121.643 0 220.252 98.61 220.252 220.251s-98.609 220.252-220.252 220.252z"/><path d="m312.962 303.482c2.478-44.375 14.738-52.642 23.75-71.25 1.464-3.02 11.625-20.962 7.605-30.394-8.97-20.875-1.484-40.264 3.711-63.364 3.864-17.102-9.896-32.749-9.896-32.749s-24.24-35.625-67.657-39.615c-.832-.092-2.925-.13-5.013-.127-2.088-.004-4.18.035-5.012.127-43.418 3.989-67.659 39.614-67.659 39.614s-13.762 15.647-9.896 32.749c5.195 23.101 12.68 42.489 3.71 63.365-4.019 9.432 6.143 27.375 7.606 30.394 9.013 18.609 21.275 26.875 23.75 71.25 2.334 41.885-98.796 29.525-129.962 49.521 40.15 42.47 79.076 108.997 176.251 108.997 98.749 0 136.354-66.979 176.552-110-32.325-19.234-130.137-7.303-127.84-48.518zm6.569 126.051-22 22-33.531-33.533-33.488 33.487-22-22 33.487-33.487-33.256-33.256 22-22 33.257 33.256 33.426-33.427 22 22-33.427 33.427z"/></svg>

<?xml version="1.0" encoding="utf-8"?>
<!-- Generator: Adobe Illustrator 16.0.4, SVG Export Plug-In . SVG Version: 6.00 Build 0)  -->
<!DOCTYPE svg PUBLIC "-//W3C//DTD SVG 1.1//EN" "http://www.w3.org/Graphics/SVG/1.1/DTD/svg11.dtd">
<svg version="1.1" id="Layer_1" xmlns="http://www.w3.org/2000/svg" xmlns:xlink="http://www.w3.org/1999/xlink" x="0px" y="0px"
	 width="528px" height="528px" viewBox="0 0 528 528" enable-background="new 0 0 528 528" xml:space="preserve">
<g display="none">
	<line display="inline" fill="none" stroke="#B35047" x1="-0.001" y1="22" x2="527.999" y2="22"/>
	<line display="inline" fill="none" stroke="#B35047" x1="-0.001" y1="44" x2="527.999" y2="44"/>
	<line display="inline" fill="none" stroke="#B35047" x1="-0.001" y1="66" x2="527.999" y2="66"/>
	<line display="inline" fill="none" stroke="#B35047" x1="-0.001" y1="88" x2="527.999" y2="88"/>
	<line display="inline" fill="none" stroke="#B35047" x1="-0.001" y1="110" x2="527.999" y2="110"/>
	<line display="inline" fill="none" stroke="#B35047" x1="-0.001" y1="132" x2="527.999" y2="132"/>
	<line display="inline" fill="none" stroke="#B35047" x1="-0.001" y1="374" x2="527.999" y2="374"/>
	<line display="inline" fill="none" stroke="#B35047" x1="-0.001" y1="396" x2="527.999" y2="396"/>
	<line display="inline" fill="none" stroke="#B35047" x1="-0.001" y1="418" x2="527.999" y2="418"/>
	<line display="inline" fill="none" stroke="#B35047" x1="-0.001" y1="440" x2="527.999" y2="440"/>
	<line display="inline" fill="none" stroke="#B35047" x1="-0.001" y1="462" x2="527.999" y2="462"/>
	<line display="inline" fill="none" stroke="#B35047" x1="-0.001" y1="484" x2="527.999" y2="484"/>
	<line display="inline" fill="none" stroke="#B35047" x1="-0.001" y1="506" x2="527.999" y2="506"/>
	<line display="inline" fill="none" stroke="#B35047" x1="21.999" y1="0" x2="21.999" y2="528"/>
	<line display="inline" fill="none" stroke="#B35047" x1="43.999" y1="0" x2="43.999" y2="528"/>
	<line display="inline" fill="none" stroke="#B35047" x1="65.999" y1="0" x2="65.999" y2="528"/>
	<line display="inline" fill="none" stroke="#B35047" x1="87.999" y1="0" x2="87.999" y2="528"/>
	<line display="inline" fill="none" stroke="#B35047" x1="109.999" y1="0" x2="109.999" y2="528"/>
	<line display="inline" fill="none" stroke="#B35047" x1="351.999" y1="0" x2="351.999" y2="528"/>
	<line display="inline" fill="none" stroke="#B35047" x1="373.999" y1="0" x2="373.999" y2="528"/>
	<line display="inline" fill="none" stroke="#B35047" x1="395.999" y1="0" x2="395.999" y2="528"/>
	<line display="inline" fill="none" stroke="#B35047" x1="417.999" y1="0" x2="417.999" y2="528"/>
	<line display="inline" fill="none" stroke="#B35047" x1="439.999" y1="0" x2="439.999" y2="528"/>
	<line display="inline" fill="none" stroke="#B35047" x1="461.999" y1="0" x2="461.999" y2="528"/>
	<line display="inline" fill="none" stroke="#B35047" x1="483.999" y1="0" x2="483.999" y2="528"/>
	<line display="inline" fill="none" stroke="#B35047" x1="505.999" y1="0" x2="505.999" y2="528"/>
	<g display="inline">
		<g>
			<line fill="none" stroke="#B35047" x1="-0.001" y1="528" x2="527.999" y2="528"/>
			<line fill="none" stroke="#B35047" x1="-0.001" y1="0" x2="-0.001" y2="528"/>
		</g>
		<g>
			<line fill="none" stroke="#B35047" x1="-0.001" y1="0" x2="527.999" y2="0"/>
			<line fill="none" stroke="#B35047" x1="527.999" y1="0" x2="527.999" y2="528"/>
		</g>
	</g>
	<line display="inline" fill="none" stroke="#B35047" x1="329.999" y1="0" x2="329.999" y2="528"/>
	<line display="inline" fill="none" stroke="#B35047" x1="307.999" y1="0" x2="307.999" y2="528"/>
	<line display="inline" fill="none" stroke="#B35047" x1="285.999" y1="0" x2="285.999" y2="528"/>
	<line display="inline" fill="none" stroke="#B35047" x1="263.999" y1="0" x2="263.999" y2="528"/>
	<line display="inline" fill="none" stroke="#B35047" x1="197.999" y1="0" x2="197.999" y2="528"/>
	<line display="inline" fill="none" stroke="#B35047" x1="175.999" y1="0" x2="175.999" y2="528"/>
	<line display="inline" fill="none" stroke="#B35047" x1="153.999" y1="0" x2="153.999" y2="528"/>
	<line display="inline" fill="none" stroke="#B35047" x1="131.999" y1="0" x2="131.999" y2="528"/>
	<line display="inline" fill="none" stroke="#B35047" x1="241.999" y1="0" x2="241.999" y2="528"/>
	<line display="inline" fill="none" stroke="#B35047" x1="219.999" y1="0" x2="219.999" y2="528"/>
	<line display="inline" fill="none" stroke="#B35047" x1="-0.001" y1="154" x2="527.999" y2="154"/>
	<line display="inline" fill="none" stroke="#B35047" x1="-0.001" y1="176" x2="527.999" y2="176"/>
	<line display="inline" fill="none" stroke="#B35047" x1="-0.001" y1="198" x2="527.999" y2="198"/>
	<line display="inline" fill="none" stroke="#B35047" x1="-0.001" y1="220" x2="527.999" y2="220"/>
	<line display="inline" fill="none" stroke="#B35047" x1="-0.001" y1="242" x2="527.999" y2="242"/>
	<line display="inline" fill="none" stroke="#B35047" x1="-0.001" y1="264" x2="527.999" y2="264"/>
	<line display="inline" fill="none" stroke="#B35047" x1="-0.001" y1="286" x2="527.999" y2="286"/>
	<line display="inline" fill="none" stroke="#B35047" x1="-0.001" y1="308" x2="527.999" y2="308"/>
	<line display="inline" fill="none" stroke="#B35047" x1="-0.001" y1="330" x2="527.999" y2="330"/>
	<line display="inline" fill="none" stroke="#B35047" x1="-0.001" y1="352" x2="527.999" y2="352"/>
</g>
<g display="none">
	<line display="inline" opacity="0.3" fill="none" stroke="#CC3333" enable-background="new    " x1="0" y1="33" x2="528" y2="33"/>
	<line display="inline" opacity="0.3" fill="none" stroke="#CC3333" enable-background="new    " x1="0" y1="55" x2="528" y2="55"/>
	<line display="inline" opacity="0.3" fill="none" stroke="#CC3333" enable-background="new    " x1="0" y1="77" x2="528" y2="77"/>
	<line display="inline" opacity="0.3" fill="none" stroke="#CC3333" enable-background="new    " x1="0" y1="99" x2="528" y2="99"/>
	
		<line display="inline" opacity="0.3" fill="none" stroke="#CC3333" enable-background="new    " x1="0" y1="121" x2="528" y2="121"/>
	
		<line display="inline" opacity="0.3" fill="none" stroke="#CC3333" enable-background="new    " x1="0" y1="143" x2="528" y2="143"/>
	
		<line display="inline" opacity="0.3" fill="none" stroke="#CC3333" enable-background="new    " x1="0" y1="385" x2="528" y2="385"/>
	
		<line display="inline" opacity="0.3" fill="none" stroke="#CC3333" enable-background="new    " x1="0" y1="407" x2="528" y2="407"/>
	
		<line display="inline" opacity="0.3" fill="none" stroke="#CC3333" enable-background="new    " x1="0" y1="429" x2="528" y2="429"/>
	
		<line display="inline" opacity="0.3" fill="none" stroke="#CC3333" enable-background="new    " x1="0" y1="451" x2="528" y2="451"/>
	
		<line display="inline" opacity="0.3" fill="none" stroke="#CC3333" enable-background="new    " x1="0" y1="473" x2="528" y2="473"/>
	
		<line display="inline" opacity="0.3" fill="none" stroke="#CC3333" enable-background="new    " x1="0" y1="495" x2="528" y2="495"/>
	
		<line display="inline" opacity="0.3" fill="none" stroke="#CC3333" enable-background="new    " x1="0" y1="517" x2="528" y2="517"/>
	
		<line display="inline" opacity="0.3" fill="none" stroke="#CC3333" enable-background="new    " x1="0" y1="165" x2="528" y2="165"/>
	
		<line display="inline" opacity="0.3" fill="none" stroke="#CC3333" enable-background="new    " x1="0" y1="187" x2="528" y2="187"/>
	
		<line display="inline" opacity="0.3" fill="none" stroke="#CC3333" enable-background="new    " x1="0" y1="209" x2="528" y2="209"/>
	
		<line display="inline" opacity="0.3" fill="none" stroke="#CC3333" enable-background="new    " x1="0" y1="231" x2="528" y2="231"/>
	
		<line display="inline" opacity="0.3" fill="none" stroke="#CC3333" enable-background="new    " x1="0" y1="253" x2="528" y2="253"/>
	
		<line display="inline" opacity="0.3" fill="none" stroke="#CC3333" enable-background="new    " x1="0" y1="275" x2="528" y2="275"/>
	
		<line display="inline" opacity="0.3" fill="none" stroke="#CC3333" enable-background="new    " x1="0" y1="297" x2="528" y2="297"/>
	
		<line display="inline" opacity="0.3" fill="none" stroke="#CC3333" enable-background="new    " x1="0" y1="319" x2="528" y2="319"/>
	
		<line display="inline" opacity="0.3" fill="none" stroke="#CC3333" enable-background="new    " x1="0" y1="341" x2="528" y2="341"/>
	
		<line display="inline" opacity="0.3" fill="none" stroke="#CC3333" enable-background="new    " x1="0" y1="363" x2="528" y2="363"/>
	<g display="inline" opacity="0.3">
		<line fill="none" stroke="#CC3333" x1="76.999" y1="0" x2="76.999" y2="528"/>
		<line fill="none" stroke="#CC3333" x1="98.999" y1="0" x2="98.999" y2="528"/>
		<line fill="none" stroke="#CC3333" x1="120.999" y1="0" x2="120.999" y2="528"/>
		<line fill="none" stroke="#CC3333" x1="142.999" y1="0" x2="142.999" y2="528"/>
		<line fill="none" stroke="#CC3333" x1="164.999" y1="0" x2="164.999" y2="528"/>
		<line fill="none" stroke="#CC3333" x1="450.999" y1="0" x2="450.999" y2="528"/>
		<line fill="none" stroke="#CC3333" x1="472.999" y1="0" x2="472.999" y2="528"/>
		<line fill="none" stroke="#CC3333" x1="494.999" y1="0" x2="494.999" y2="528"/>
		<line fill="none" stroke="#CC3333" x1="516.999" y1="0" x2="516.999" y2="528"/>
		<line fill="none" stroke="#CC3333" x1="54.999" y1="0" x2="54.999" y2="528"/>
		<line fill="none" stroke="#CC3333" x1="384.999" y1="0" x2="384.999" y2="528"/>
		<line fill="none" stroke="#CC3333" x1="362.999" y1="0" x2="362.999" y2="528"/>
		<line fill="none" stroke="#CC3333" x1="340.999" y1="0" x2="340.999" y2="528"/>
		<line fill="none" stroke="#CC3333" x1="318.999" y1="0" x2="318.999" y2="528"/>
		<line fill="none" stroke="#CC3333" x1="32.999" y1="0" x2="32.999" y2="528"/>
		<line fill="none" stroke="#CC3333" x1="406.999" y1="0" x2="406.999" y2="528"/>
		<line fill="none" stroke="#CC3333" x1="296.999" y1="0" x2="296.999" y2="528"/>
		<line fill="none" stroke="#CC3333" x1="274.999" y1="0" x2="274.999" y2="528"/>
		<line fill="none" stroke="#CC3333" x1="252.999" y1="0" x2="252.999" y2="528"/>
		<line fill="none" stroke="#CC3333" x1="230.999" y1="0" x2="230.999" y2="528"/>
		<line fill="none" stroke="#CC3333" x1="208.999" y1="0" x2="208.999" y2="528"/>
		<line fill="none" stroke="#CC3333" x1="186.999" y1="0" x2="186.999" y2="528"/>
		<line fill="none" stroke="#CC3333" x1="428.999" y1="0" x2="428.999" y2="528"/>
		<line fill="none" stroke="#CC3333" x1="10.007" y1="0" x2="10.007" y2="528"/>
	</g>
	<line display="inline" opacity="0.3" fill="none" stroke="#CC3333" enable-background="new    " x1="0" y1="11" x2="528" y2="11"/>
</g>
<path d="M263.999,0c-145.803,0-264,118.197-264,264s118.197,264,264,264c145.803,0,264-118.197,264-264S409.802,0,263.999,0z
	 M264.251,484c-121.642,0-220.252-98.609-220.252-220.252c0-121.642,98.61-220.251,220.252-220.251
	c121.643,0,220.252,98.61,220.252,220.251C484.503,385.389,385.894,484,264.251,484z"/>
<path d="M312.962,303.482c2.478-44.375,14.738-52.642,23.75-71.25c1.464-3.02,11.625-20.962,7.605-30.394
	c-8.97-20.875-1.484-40.264,3.711-63.364c3.864-17.102-9.896-32.749-9.896-32.749S313.892,70.1,270.475,66.11
	c-0.832-0.092-2.925-0.13-5.013-0.127c-2.088-0.004-4.18,0.035-5.012,0.127c-43.418,3.989-67.659,39.614-67.659,39.614
	s-13.762,15.647-9.896,32.749c5.195,23.101,12.68,42.489,3.71,63.365c-4.019,9.432,6.143,27.375,7.606,30.394
	c9.013,18.609,21.275,26.875,23.75,71.25c2.334,41.885-98.796,29.525-129.962,49.521C128.149,395.473,167.075,462,264.25,462
	c98.749,0,136.354-66.979,176.552-110C408.477,332.766,310.665,344.697,312.962,303.482z M319.531,429.533l-22,22L264,418
	l-33.488,33.487l-22-22L241.999,396l-33.256-33.256l22-22L264,374l33.426-33.427l22,22L285.999,396L319.531,429.533z"/>
</svg>
